X:17514
T:Toast,The. JC.104
M:6/8
L:1/8
Q:120
S:John Clare,Poet,Helpston. (1793-1864)
R:Jig
O:England
A:Northamptonshire
N:
Z:P Headford
K:G
"crot"D|GAG DcB|ABG AFD|GAG DcG cAFG2:|!
|:F|AFD BGF|cAF dBG|AFD BGD|cAFG2:|!
|:"crot"d|gfe dBB|cAA BGG|gfe dBB|gfe dcB|cAFG2:|!
|:d|dBec2A|F2DB2d|dBec2A|FDFG2:|]
